ui/StatusQ/src/assets/img/icons/calendar.svg

<svg fill="none" height="24" viewBox="0 0 24 24" width="24" xmlns="http://www.w3.org/2000/svg"><g fill="#939ba1"><path clip-rule="evenodd" d="m16.25 2.25c0 .27614-.2239.5-.5.5h-7.5c-.27614 0-.5-.22386-.5-.5v-.5c0-.41421-.33579-.75-.75-.75s-.75.33579-.75.75v.75c0 .13807-.11193.25-.25.25-2.20914 0-4 1.79086-4 4v10c0 2.2091 1.79086 4 4 4h12c2.2091 0 4-1.7909 4-4v-10c0-2.20914-1.7909-4-4-4-.1381 0-.25-.11193-.25-.25v-.75c0-.41421-.3358-.75-.75-.75s-.75.33579-.75.75zm-9.25 3.25c-.41421 0-.75-.33579-.75-.75v-.25c0-.13807-.11193-.25-.25-.25-1.38071 0-2.5 1.11929-2.5 2.5v.75c0 .27614.22386.5.5.5h16c.2761 0 .5-.22386.5-.5v-.75c0-1.38071-1.1193-2.5-2.5-2.5-.1381 0-.25.11193-.25.25v.25c0 .41421-.3358.75-.75.75s-.75-.33579-.75-.75c0-.27614-.2239-.5-.5-.5h-7.5c-.27614 0-.5.22386-.5.5 0 .41421-.33579.75-.75.75zm13 4c.2761 0 .5.22386.5.5v6.75c0 1.3807-1.1193 2.5-2.5 2.5h-12c-1.38071 0-2.5-1.1193-2.5-2.5v-6.75c0-.27614.22386-.5.5-.5z" fill-rule="evenodd"/><path d="m5.8 11.75c0-.5523.44772-1 1-1h.5c.55228 0 1 .4477 1 1v.5c0 .5523-.44772 1-1 1h-.5c-.55228 0-1-.4477-1-1z"/><path d="m5.8 16.25c0-.5523.44772-1 1-1h.5c.55228 0 1 .4477 1 1v.5c0 .5523-.44772 1-1 1h-.5c-.55228 0-1-.4477-1-1z"/><path d="m10.75 11.75c0-.5523.4477-1 1-1h.5c.5523 0 1 .4477 1 1v.5c0 .5523-.4477 1-1 1h-.5c-.5523 0-1-.4477-1-1z"/><path d="m10.75 16.25c0-.5523.4477-1 1-1h.5c.5523 0 1 .4477 1 1v.5c0 .5523-.4477 1-1 1h-.5c-.5523 0-1-.4477-1-1z"/><path d="m15.7 11.75c0-.5523.4477-1 1-1h.5c.5523 0 1 .4477 1 1v.5c0 .5523-.4477 1-1 1h-.5c-.5523 0-1-.4477-1-1z"/><path d="m15.7 16.25c0-.5523.4477-1 1-1h.5c.5523 0 1 .4477 1 1v.5c0 .5523-.4477 1-1 1h-.5c-.5523 0-1-.4477-1-1z"/></g></svg>

<svg width="24" height="24" viewBox="0 0 24 24" fill="none" xmlns="http://www.w3.org/2000/svg">
<path fill-rule="evenodd" clip-rule="evenodd" d="M16.25 2.25C16.25 2.52614 16.0261 2.75 15.75 2.75H8.25C7.97386 2.75 7.75 2.52614 7.75 2.25V1.75C7.75 1.33579 7.41421 1 7 1C6.58579 1 6.25 1.33579 6.25 1.75V2.5C6.25 2.63807 6.13807 2.75 6 2.75C3.79086 2.75 2 4.54086 2 6.75V16.75C2 18.9591 3.79086 20.75 6 20.75H18C20.2091 20.75 22 18.9591 22 16.75V6.75C22 4.54086 20.2091 2.75 18 2.75C17.8619 2.75 17.75 2.63807 17.75 2.5V1.75C17.75 1.33579 17.4142 1 17 1C16.5858 1 16.25 1.33579 16.25 1.75V2.25ZM7 5.5C6.58579 5.5 6.25 5.16421 6.25 4.75V4.5C6.25 4.36193 6.13807 4.25 6 4.25C4.61929 4.25 3.5 5.36929 3.5 6.75V7.5C3.5 7.77614 3.72386 8 4 8H20C20.2761 8 20.5 7.77614 20.5 7.5V6.75C20.5 5.36929 19.3807 4.25 18 4.25C17.8619 4.25 17.75 4.36193 17.75 4.5V4.75C17.75 5.16421 17.4142 5.5 17 5.5C16.5858 5.5 16.25 5.16421 16.25 4.75C16.25 4.47386 16.0261 4.25 15.75 4.25H8.25C7.97386 4.25 7.75 4.47386 7.75 4.75C7.75 5.16421 7.41421 5.5 7 5.5ZM20 9.5C20.2761 9.5 20.5 9.72386 20.5 10V16.75C20.5 18.1307 19.3807 19.25 18 19.25H6C4.61929 19.25 3.5 18.1307 3.5 16.75V10C3.5 9.72386 3.72386 9.5 4 9.5H20Z" fill="#939BA1"/>
<path d="M5.8 11.75C5.8 11.1977 6.24772 10.75 6.8 10.75H7.3C7.85228 10.75 8.3 11.1977 8.3 11.75V12.25C8.3 12.8023 7.85228 13.25 7.3 13.25H6.8C6.24772 13.25 5.8 12.8023 5.8 12.25V11.75Z" fill="#939BA1"/>
<path d="M5.8 16.25C5.8 15.6977 6.24772 15.25 6.8 15.25H7.3C7.85228 15.25 8.3 15.6977 8.3 16.25V16.75C8.3 17.3023 7.85228 17.75 7.3 17.75H6.8C6.24772 17.75 5.8 17.3023 5.8 16.75V16.25Z" fill="#939BA1"/>
<path d="M10.75 11.75C10.75 11.1977 11.1977 10.75 11.75 10.75H12.25C12.8023 10.75 13.25 11.1977 13.25 11.75V12.25C13.25 12.8023 12.8023 13.25 12.25 13.25H11.75C11.1977 13.25 10.75 12.8023 10.75 12.25V11.75Z" fill="#939BA1"/>
<path d="M10.75 16.25C10.75 15.6977 11.1977 15.25 11.75 15.25H12.25C12.8023 15.25 13.25 15.6977 13.25 16.25V16.75C13.25 17.3023 12.8023 17.75 12.25 17.75H11.75C11.1977 17.75 10.75 17.3023 10.75 16.75V16.25Z" fill="#939BA1"/>
<path d="M15.7 11.75C15.7 11.1977 16.1477 10.75 16.7 10.75H17.2C17.7523 10.75 18.2 11.1977 18.2 11.75V12.25C18.2 12.8023 17.7523 13.25 17.2 13.25H16.7C16.1477 13.25 15.7 12.8023 15.7 12.25V11.75Z" fill="#939BA1"/>
<path d="M15.7 16.25C15.7 15.6977 16.1477 15.25 16.7 15.25H17.2C17.7523 15.25 18.2 15.6977 18.2 16.25V16.75C18.2 17.3023 17.7523 17.75 17.2 17.75H16.7C16.1477 17.75 15.7 17.3023 15.7 16.75V16.25Z" fill="#939BA1"/>
</svg>
